X:1767
T:Sault's Favorite
M:C|
L:1/8
N:"collected by Gillan"
B:O'Neill's 1767
R:Hornpipe
Z:"Transcribed by Bob Safranek, rjs@gsp.org"
K:F
   C2 | F>EF>A c>=Bc>d | f>ga>f c2 c>B | ((3ABc) f>d c>AG>F | E>FG>A G>EC>E |
        F>EF>A c>=Bc>d | f>ga>f c2 c>B | ((3ABc) f>d c>AG>E | F2 A2  F2    :|
|:c2 |((3fga) c>a f>ac>a |((3gab) d>b g>bd>b |((3fga) c>a f>ac>a | g>fe>d c2 d>e|
        f>ca>c f>ca>c  | g>cb>c g>cb>c |     c'2 b>a g>fe>g | f2 a2  f2    :|


